X:65
T:Jews Harp. JJo8.065, The
B:J.Johnson Choice Collection Vol 8 1758
Z:vmp.Simon Wilson 2013 www.village-music-project.org.uk
M:C|
L:1/4
Q:1/2=100
K:A
c|BAGF|Ed2f|edcB|ca2c|BAGF|Ed2f|edcB|A2A,:|
|:d|cBAG|Ff2g|"^tr"a>gaf|eA2B/c/|dBfd|cAaf|edcB|A2A,:|
